common/svg/users-icon.svg

<svg fill="none" height="20" viewBox="0 0 20 20" width="20" xmlns="http://www.w3.org/2000/svg"><g fill="#000"><path clip-rule="evenodd" d="m4.64091 4.42979c.82286-.83606 1.97445-1.30145 3.41853-1.30145 1.44407 0 2.59556.46539 3.41816 1.30163.8057.81912 1.2128 1.90908 1.3555 3.02238.2219 1.73127-.17 3.69625-.9429 5.30135.8593.2558 1.6753.7155 2.3457 1.2815 1.0321.8713 1.8818 2.1378 1.8792 3.5467-.0008.5016-.4077.9077-.9092.9077h-14.296618c-.241156 0-.472436-.0958-.642959-.2664-.1705239-.1705-.266323-.4018-.266323-.6429 0-1.4076.848712-2.6735 1.88051-3.545.67009-.566 1.48556-1.0257 2.34455-1.2815-.7727-1.6053-1.16386-3.57052-.94109-5.30187.14325-1.11332.55089-2.20316 1.35694-3.02214zm.44675 3.25422c-.22148 1.72136.35361 3.84649 1.33074 5.23489.19538.2776.21984.6409.06346.9422-.15639.3013-.46758.4904-.80705.4904-.83848 0-1.82909.4044-2.62083 1.0731-.46134.3897-.80103.8213-1.00619 1.2464h12.02101c-.2047-.4248-.5443-.8564-1.0061-1.2462-.7921-.6688-1.7837-1.0733-2.6224-1.0733-.3394 0-.65062-.1891-.807-.4904-.15639-.3013-.13192-.6646.06345-.9422.97725-1.3886 1.55325-3.51393 1.33255-5.23531-.1086-.8472-.3997-1.52242-.8482-1.97834-.43166-.43882-1.0904-.75835-2.12166-.75835-1.03127 0-1.69036.31954-2.12241.75853-.44886.45606-.74036 1.1314-.84937 1.97858z" fill-rule="evenodd"/><path d="m11.8981 1.25c-1.444 0-2.59564.46539-3.4185 1.30145-.53745.54608-.89778 1.21257-1.1207 1.92616.22061-.02999.45399-.04557.70055-.04557.44388 0 .84499.05049 1.20584.14465.13635-.29185.30727-.54318.51043-.7496.43208-.43899 1.09118-.75852 2.12238-.75852 1.0313 0 1.69.31953 2.1217.75834.4484.45592.7396 1.13114.8482 1.97834.2207 1.72139-.3553 3.84672-1.3326 5.23535-.1953.2776-.2198.6409-.0634.9422s.4676.4904.807.4904c.8387 0 1.8303.4044 2.6224 1.0732.4618.3899.8014.8214 1.0061 1.2463h-4.6902c.7002.487 1.2902 1.1229 1.6416 1.8185h4.1857c.5015 0 .9083-.4061.9092-.9076.0026-1.4089-.8471-2.6754-1.8792-3.5468-.6705-.5659-1.4864-1.0256-2.3457-1.2814.7729-1.60509 1.1648-3.57012.9429-5.30138-.1427-1.1133-.5498-2.20326-1.3556-3.02239-.8225-.83624-1.974-1.30163-3.4181-1.30163z"/><path d="m4.19501 14.1157c.49008-.1787.99389-.279 1.47981-.279-.22367-.3179-.4284-.6683-.6105-1.0414-.35056.3954-.65272.8402-.86931 1.3204z"/></g></svg>

<svg width="20" height="20" viewBox="0 0 20 20" fill="none" xmlns="http://www.w3.org/2000/svg">
<path fill-rule="evenodd" clip-rule="evenodd" d="M4.64091 4.42979C5.46377 3.59373 6.61536 3.12834 8.05944 3.12834C9.50351 3.12834 10.655 3.59373 11.4776 4.42997C12.2833 5.24909 12.6904 6.33905 12.8331 7.45235C13.055 9.18362 12.6631 11.1486 11.8902 12.7537C12.7495 13.0095 13.5655 13.4692 14.2359 14.0352C15.268 14.9065 16.1177 16.173 16.1151 17.5819C16.1143 18.0835 15.7074 18.4896 15.2059 18.4896H0.909282C0.668126 18.4896 0.436846 18.3938 0.266323 18.2232C0.0957991 18.0527 0 17.8214 0 17.5803C0 16.1727 0.848712 14.9068 1.88051 14.0353C2.5506 13.4693 3.36607 13.0096 4.22506 12.7538C3.45236 11.1485 3.0612 9.18328 3.28397 7.45193C3.42722 6.33861 3.83486 5.24877 4.64091 4.42979ZM5.08766 7.68401C4.86618 9.40537 5.44127 11.5305 6.4184 12.9189C6.61378 13.1965 6.63824 13.5598 6.48186 13.8611C6.32547 14.1624 6.01428 14.3515 5.67481 14.3515C4.83633 14.3515 3.84572 14.7559 3.05398 15.4246C2.59264 15.8143 2.25295 16.2459 2.04779 16.671H14.0688C13.8641 16.2462 13.5245 15.8146 13.0627 15.4248C12.2706 14.756 11.279 14.3515 10.4403 14.3515C10.1009 14.3515 9.78968 14.1624 9.6333 13.8611C9.47691 13.5598 9.50138 13.1965 9.69675 12.9189C10.674 11.5303 11.25 9.40497 11.0293 7.68359C10.9207 6.83639 10.6296 6.16117 10.1811 5.70525C9.74944 5.26643 9.0907 4.9469 8.05944 4.9469C7.02817 4.9469 6.36908 5.26644 5.93703 5.70543C5.48817 6.16149 5.19667 6.83683 5.08766 7.68401Z" fill="black"/>
<path d="M11.8981 1.25C10.4541 1.25 9.30246 1.71539 8.4796 2.55145C7.94215 3.09753 7.58182 3.76402 7.3589 4.47761C7.57951 4.44762 7.81289 4.43204 8.05945 4.43204C8.50333 4.43204 8.90444 4.48253 9.26529 4.57669C9.40164 4.28484 9.57256 4.03351 9.77572 3.82709C10.2078 3.3881 10.8669 3.06857 11.8981 3.06857C12.9294 3.06857 13.5881 3.3881 14.0198 3.82691C14.4682 4.28283 14.7594 4.95805 14.868 5.80525C15.0887 7.52664 14.5127 9.65197 13.5354 11.0406C13.3401 11.3182 13.3156 11.6815 13.472 11.9828C13.6284 12.2841 13.9396 12.4732 14.279 12.4732C15.1177 12.4732 16.1093 12.8776 16.9014 13.5464C17.3632 13.9363 17.7028 14.3678 17.9075 14.7927H13.2173C13.9175 15.2797 14.5075 15.9156 14.8589 16.6112H19.0446C19.5461 16.6112 19.9529 16.2051 19.9538 15.7036C19.9564 14.2947 19.1067 13.0282 18.0746 12.1568C17.4041 11.5909 16.5882 11.1312 15.7289 10.8754C16.5018 9.27031 16.8937 7.30528 16.6718 5.57402C16.5291 4.46072 16.122 3.37076 15.3162 2.55163C14.4937 1.71539 13.3422 1.25 11.8981 1.25Z" fill="black"/>
<path d="M4.19501 14.1157C4.68509 13.937 5.1889 13.8367 5.67482 13.8367C5.45115 13.5188 5.24642 13.1684 5.06432 12.7953C4.71376 13.1907 4.4116 13.6355 4.19501 14.1157Z" fill="black"/>
</svg>
